!!!Melodie: dir, dir, o Höchster, will ich singen
!!!Typ: Lied
**kern	**silbe	**silbe	**silbe	**silbe	**silbe	**silbe	**silbe	**silbe
*clefG2	*lang:DE	*lang:DE	*lang:DE	*lang:DE	*lang:DE	*lang:DE	*lang:DE	*lang:DE
*k[b-,e-]	*	*	*	*	*	*	*	*
4f	Lass	gib	Gib	dass	Lass	und	Ach,	stets
=	=	=	=	=	=	=	=	=
4b-	mich,	selbst	mei#	man	mich,	dei#	hilf	Dank
4f	o	das	#nem	an	so#	#nem	mir	und
4g	Herr,	Wol#	Glau#	sei#	#lang'	Wil#	be#	Ruhm
4g	in	#len	#ben	#nen	ich	#len	#ten,	und
4.f	al#	und	Mut	Früch#	hier	mich	wa#	Eh#
8e-	#len	Voll#	und	#ten	soll	er#	#chen,	#re
=	=	=	=	=	=	=	=	=
4d	Din#	#brin#	Stär#	mer#	le#	#ge#	rin#	brin#
4B-	#gen	#gen	#ke	#ke,	#ben,	#ben,	#gen,	#gen,
4r	%	%	%	%	%	%	%	%
4c	auf	und	und	er	in	der	so	dir,
4d	dei#	lass	lass	sei	gut’	mir	will	der
4e	#nen	mein	ihn	kein	und	zum	ich	du
=	=	=	=	=	=	=	=	=
4f	Wil#	Herz	in	eit#	bö#	bes#	dir,	al#
4g	#len	dir	der	#ler	#sen	#ten	wenn	#les
4a	seh’n	ganz	Lie#	Traum	Ta#	al#	ich	hast
4b-	und	ge#	#be	und	#gen	#les	den	so
4a	dir	#hei#	tä#	fal#	sein	weis#	Lauf	wohl
4g	mich	#ligt	#tig	#scher	ver#	#lich	voll#	ge#
=	=	=	=	=	=	=	=	=
2f	weih’n;	sein.	sein,	Schein.	#gnügt,	fügt;	#bracht,	#macht.
4r	%	%	%	%	%	%	%	%
=:|	=	=	=	=	=	=	=	=
4f	.	Nimm	.	Er	.	gib	.	Dann
4b-	.	mei#	.	stär#	.	Furcht	.	werd’
4cc	.	#nen	.	#ke	.	und	.	ich
=	=	=	=	=	=	=	=	=
4dd	.	Leib	.	mich	.	De#	.	hei#
4b-	.	und	.	in	.	#mut,	.	#lig,
4ee-	.	Geist	.	mei#	.	wann	.	rein
4dd	.	zum	.	#ner	.	du	.	und
4cc	.	Op#	.	Pil#	.	mich	.	dir
4b-	.	#fer	.	#ger#	.	be#	.	ge#
=	=	=	=	=	=	=	=	=
2cc	.	hin;	.	#schaft	.	#glückst,	.	#weiht,
4r	.	%	.	%	.	%	.	%
4dd	.	dein,	.	und	.	Ge#	.	dein
4cc	.	Herr,	.	ge#	.	#duld	.	Lob
4b-	.	ist	.	#be	.	und	.	ver#
=	=	=	=	=	=	=	=	=
4a	.	al#	.	mir	.	Trost,	.	#kün#
4g	.	#les,	.	zum	.	wann	.	#di#
4f	.	was	.	Kampf	.	du	.	#gen
4b-	.	ich	.	und	.	mir	.	in
4b-	.	hab	.	Sie#	.	Trüb#	.	E#
4a	.	und	.	#ge	.	#sal	.	#wig#
=	=	=	=	=	=	=	=	=
2b-	.	bin.	.	Kraft.	.	schickst.	.	#keit.
==	==	==	==	==	==	==	==	==
*-	*-	*-	*-	*-	*-	*-	*-	*-
